tools/download-figma-icons/icons/outlined-medium/charging-station.svg

<svg width="24" height="24" viewBox="0 0 24 24" fill="none" xmlns="http://www.w3.org/2000/svg">
<path fill-rule="evenodd" clip-rule="evenodd" d="M3 22.5H13.5V2.98575C13.5 2.16675 12.8333 1.5 12.0142 1.5H4.48575C3.66675 1.5 3 2.16675 3 2.98575V22.5ZM17.7803 2.46975L22.2803 6.96975C22.4213 7.11 22.5 7.3005 22.5 7.5V19.5C22.5 21.1545 21.1545 22.5 19.5 22.5C17.919 22.5 16.6342 21.267 16.5217 19.7145C16.5194 19.7002 16.5156 19.6865 16.5118 19.6729C16.5059 19.6514 16.5 19.6302 16.5 19.6073C16.5 19.137 16.1175 18.7545 15.6473 18.7545H15V23.25C15 23.6647 14.6648 24 14.25 24H2.25C1.83525 24 1.5 23.6647 1.5 23.25V2.98575C1.5 1.3395 2.8395 0 4.48575 0H12.0142C13.6605 0 15 1.3395 15 2.98575V17.2545H15.6473C16.8713 17.2545 17.868 18.1973 17.9783 19.392C17.9806 19.4062 17.9843 19.4198 17.9881 19.4333C17.9941 19.455 18 19.4765 18 19.5C18 20.3272 18.6728 21 19.5 21C20.3272 21 21 20.3272 21 19.5V9.75H20.625C19.5907 9.75 18.75 8.7825 18.75 7.59375V5.5605L16.7197 3.53025C16.4265 3.237 16.4265 2.763 16.7197 2.46975C17.013 2.1765 17.487 2.1765 17.7803 2.46975ZM8.07373 11.25H9.74998C10.02 11.25 10.269 11.3955 10.4025 11.631C10.536 11.8658 10.5322 12.1545 10.3927 12.3863L8.14273 16.1318C8.00248 16.3658 7.75423 16.4955 7.49923 16.4955C7.36798 16.4955 7.23448 16.461 7.11373 16.389C6.75898 16.1753 6.64348 15.714 6.85723 15.3593L8.42398 12.75H6.74998C6.47998 12.75 6.23098 12.6053 6.09748 12.3698C5.96398 12.135 5.96773 11.8463 6.10723 11.6145L8.35723 7.86001C8.56948 7.50451 9.03148 7.38976 9.38548 7.60276C9.74023 7.81501 9.85648 8.27551 9.64273 8.63101L8.07373 11.25Z" fill="black"/>
</svg>

<svg xmlns="http://www.w3.org/2000/svg" width="24" height="24" fill="none" viewBox="0 0 24 24"><path fill="currentColor" fill-rule="evenodd" d="M3 22.5h10.5V2.986c0-.82-.667-1.486-1.486-1.486H4.486C3.666 1.5 3 2.167 3 2.986zM17.78 2.47l4.5 4.5c.141.14.22.33.22.53v12c0 1.654-1.346 3-3 3a2.995 2.995 0 0 1-2.978-2.785l-.01-.042q-.01-.032-.012-.066a.854.854 0 0 0-.853-.852H15v4.495a.75.75 0 0 1-.75.75h-12a.75.75 0 0 1-.75-.75V2.986A2.99 2.99 0 0 1 4.486 0h7.528A2.99 2.99 0 0 1 15 2.986v14.269h.647c1.224 0 2.221.942 2.331 2.137l.01.041A.3.3 0 0 1 18 19.5c0 .827.673 1.5 1.5 1.5s1.5-.673 1.5-1.5V9.75h-.375c-1.034 0-1.875-.967-1.875-2.156V5.56l-2.03-2.03a.75.75 0 1 1 1.06-1.061m-9.706 8.78H9.75a.75.75 0 0 1 .643 1.136l-2.25 3.746a.749.749 0 1 1-1.286-.773l1.567-2.609H6.75a.75.75 0 0 1-.643-1.136l2.25-3.754a.749.749 0 1 1 1.286.771z" clip-rule="evenodd"/></svg>
